build/img/design.svg

<svg width="60" height="60" viewBox="0 0 60 60" xmlns="http://www.w3.org/2000/svg" fill="#686868">
<path d="M59.371 37.0697C58.9897 36.9182 58.5544 37.0129 58.271 37.3096L54.0001 41.799V15.1331H54.0051L58.0801 10.733C58.4551 10.3279 58.4303 9.69477 58.0248 9.31985C58.0248 9.31985 58.0243 9.31939 58.0238 9.31893L56.5572 7.95385L58.5951 5.75378C58.9696 5.34819 58.9444 4.71555 58.5388 4.34109L54.1388 0.265976C53.7337 -0.108941 53.101 -0.0846792 52.7261 0.320909L45.6162 7.99825H11.0001C10.9969 5.23787 8.76022 3.00118 5.99991 2.99798H5.00015C2.23984 3.00118 0.00320435 5.23787 0 7.99825V50.9993C0 51.5514 0.447693 51.9991 1.00021 51.9991H16.138L14.0378 54.521C13.6848 54.9458 13.7425 55.5762 14.1669 55.9291L18.7779 59.7685C19.2023 60.1219 19.8331 60.0642 20.1865 59.6398L25.3052 53.4901C25.6586 53.0644 25.8861 52.5475 25.9612 51.9991H44.285L38.275 58.3105C37.8946 58.7106 37.9106 59.3437 38.3107 59.7241C38.4966 59.9008 38.7433 59.9997 39.0001 59.9992H58.9998C59.5523 59.9992 60 59.5515 60 58.9994V37.999C60 37.5897 59.751 37.2217 59.371 37.0697ZM55.9332 10.0981L54.0001 12.1892V10.7184L55.1999 9.41827L55.9332 10.0981ZM52.0001 9.91999V9.93418L43.5429 19.0746L40.6059 16.3572L50.7939 5.34682L53.7309 8.06417L52.012 9.91999H52.0001ZM41.6222 20.0203L39.3219 20.6914L39.8131 18.3453L41.6222 20.0203ZM53.5112 2.41111L56.4468 5.12709L55.0882 6.59792L52.1521 3.87919L53.5112 2.41111ZM5.00015 4.998H5.99991C7.65701 4.998 9.00009 6.34111 9.00009 7.99825V46.0252C8.1395 45.3632 7.08527 45.0025 5.99991 44.9988H5.00015C3.91434 45.0025 2.86057 45.3632 1.99997 46.0252V7.99825C1.99997 6.34111 3.34305 4.998 5.00015 4.998ZM5.00015 46.9988H5.99991C7.65701 46.9988 9.00009 48.3424 9.00009 49.9991H1.99997C1.99997 48.3424 3.34305 46.9988 5.00015 46.9988ZM23.7689 52.2111L23.129 52.9792L20.0551 50.4203L20.6941 49.6512C21.0475 49.2268 21.6779 49.1692 22.1022 49.5226C22.1027 49.5226 22.1027 49.523 22.1031 49.523L23.6398 50.7993C24.0646 51.1522 24.1228 51.7826 23.7698 52.2074C23.7694 52.2079 23.7694 52.2079 23.7689 52.2083V52.2111ZM19.2902 57.5913L16.2158 55.0323L18.7752 51.957L21.8491 54.5164L19.2902 57.5913ZM25.5409 49.9991C25.3748 49.7222 25.1646 49.4745 24.9188 49.2653L23.3821 47.9863C22.1086 46.9261 20.2171 47.0986 19.157 48.3722L17.8001 49.9991H11.0001V9.99827H43.7659L38.459 15.7333C38.383 15.8189 38.3226 15.9178 38.2809 16.0244C38.269 16.0533 38.2599 16.0803 38.2498 16.1105C38.2402 16.1402 38.2251 16.1705 38.2178 16.2025L37.0239 21.9105C36.9113 22.4511 37.2583 22.9808 37.7989 23.0934C37.9596 23.1268 38.1258 23.1204 38.2828 23.0746L43.8831 21.4426C43.9092 21.4344 43.9311 21.4193 43.9558 21.4106C43.981 21.4014 44.0071 21.3886 44.0341 21.3754C44.1463 21.3245 44.2479 21.2527 44.334 21.1643L52.0001 12.879V43.8988L46.1902 49.9991H25.5409ZM58 57.9992H41.3329L58 40.4989V57.9992Z"/>
<path d="M47.076 55.3821C47.2307 55.7556 47.5955 55.9992 48.0002 55.9992H54.9999C55.5524 55.9992 56.0001 55.5515 56.0001 54.9994V47.9991C56.0001 47.4465 55.5519 46.9993 54.9999 46.9993C54.7348 46.9993 54.4803 47.1046 54.2931 47.2923L47.2929 54.2921C47.0068 54.5782 46.9212 55.0085 47.076 55.3821ZM54.0001 50.4129V53.9991H50.414L54.0001 50.4129Z"/>
<path d="M43.9998 37.999H37.0001V26.9987C36.9987 26.7332 36.893 26.4787 36.7058 26.2905L30.7059 20.2904C30.3154 19.9 29.6823 19.9 29.2918 20.2904L23.2919 26.2905C23.1056 26.4791 23.0008 26.7336 22.9999 26.9987V37.999H16.0002C15.4477 37.999 15 38.4467 15 38.9988C15 39.5513 15.4477 39.999 16.0002 39.999H44.0002C44.5523 39.999 45 39.5513 45 38.9988C45 38.4467 44.5523 37.999 43.9998 37.999ZM30 22.4122L33.5861 25.9984H26.4139L30 22.4122ZM24.9998 27.9985H35.0002V37.999H24.9998V27.9985Z"/>
<path d="M28.9998 15.9983H31.0002V17.9984H28.9998V15.9983Z"/>
<path d="M28.9998 41.999H31.0002V43.9991H28.9998V41.999Z"/>
</svg>

<svg width="60" height="60" xmlns="http://www.w3.org/2000/svg" fill="#686868"><path d="M59.371 37.07a1.007 1.007 0 00-1.1.24l-4.27 4.489V15.133h.004l4.075-4.4a1 1 0 00-.055-1.413l-.001-.001-1.467-1.365 2.038-2.2a1 1 0 00-.056-1.413l-4.4-4.075a1 1 0 00-1.413.055l-7.11 7.677H11a5.006 5.006 0 00-5-5H5a5.006 5.006 0 00-5 5V51a1 1 0 001 1h15.138l-2.1 2.522a1 1 0 00.129 1.408l4.61 3.84a1 1 0 001.41-.13l5.118-6.149c.354-.426.581-.943.656-1.49h18.324l-6.01 6.31A1 1 0 0039 60h20a1 1 0 001-1V37.998a1 1 0 00-.629-.93zm-3.438-26.972L54 12.19v-1.47l1.2-1.3.733.68zM52 9.92v.014l-8.457 9.14-2.937-2.717 10.188-11.01 2.937 2.717-1.719 1.856H52zm-10.378 10.1l-2.3.671.491-2.346 1.81 1.675zm11.89-17.609l2.935 2.716-1.359 1.47-2.936-2.718 1.36-1.468zM5 4.998h1a3 3 0 013 3v38.027A4.949 4.949 0 006 45H5a4.948 4.948 0 00-3 1.026V7.998a3 3 0 013-3zm0 42h1A3 3 0 019 50H2a3 3 0 013-3zm18.769 5.213l-.64.768-3.074-2.559.64-.769a1 1 0 011.407-.128h.001l1.537 1.276a1 1 0 01.13 1.408l-.001.001v.003zm-4.479 5.38l-3.074-2.559 2.56-3.075 3.073 2.56-2.559 3.074zM25.54 50a2.97 2.97 0 00-.621-.734l-1.537-1.279a3 3 0 00-4.225.386L17.8 50H11V10h32.766l-5.307 5.734a.973.973 0 00-.21.377c-.009.03-.024.06-.031.093l-1.194 5.707a1 1 0 001.259 1.165l5.6-1.632c.026-.009.048-.024.073-.032.025-.01.051-.022.078-.036a.99.99 0 00.3-.21L52 12.878v31.02l-5.81 6.1H25.54zM58 58H41.333L58 40.5v17.5z"/><path d="M47.076 55.382A1 1 0 0048 56h7a1 1 0 001-1v-7a1 1 0 00-1.707-.707l-7 7a1 1 0 00-.217 1.09zM54 50.412V54h-3.586L54 50.413zM44 37.999h-7v-11a1.012 1.012 0 00-.294-.708l-6-6a1 1 0 00-1.414 0l-6 6a1.013 1.013 0 00-.292.708v11h-7a1 1 0 100 2h28a1 1 0 100-2zM30 22.412l3.586 3.586h-7.172L30 22.412zM25 28h10v10H25v-10zM29 15.998h2v2h-2v-2zM29 41.999h2v2h-2v-2z"/></svg>
